svgs/sharp-thin/stopwatch.svg

<svg xmlns="http://www.w3.org/2000/svg" viewBox="0 0 448 512"><!--! Font Awesome Pro 6.6.0 by @fontawesome - https://fontawesome.com License - https://fontawesome.com/license (Commercial License) Copyright 2024 Fonticons, Inc. --><path d="M144 0L304 0l0 16-72 0 0 80.2c55.4 2.1 105.3 25.9 141.4 63.1l36.9-36.9 5.7-5.7L427.3 128l-5.7 5.7-37.6 37.6C414 207.2 432 253.5 432 304c0 114.9-93.1 208-208 208S16 418.9 16 304c0-112.2 88.8-203.6 200-207.8L216 16l-72 0 0-16zm80 496a192 192 0 1 0 0-384 192 192 0 1 0 0 384zm8-312l0 136 0 8-16 0 0-8 0-136 0-8 16 0 0 8z"/></svg>

<svg xmlns="http://www.w3.org/2000/svg" viewBox="0 0 448 512"><!--! Font Awesome Pro 6.5.2 by @fontawesome - https://fontawesome.com License - https://fontawesome.com/license (Commercial License) Copyright 2024 Fonticons, Inc. --><path d="M144 0H304V16H232V96.2c55.4 2.1 105.3 25.9 141.4 63.1l36.9-36.9 5.7-5.7L427.3 128l-5.7 5.7-37.6 37.6C414 207.2 432 253.5 432 304c0 114.9-93.1 208-208 208S16 418.9 16 304c0-112.2 88.8-203.6 200-207.8V16H144V0zm80 496a192 192 0 1 0 0-384 192 192 0 1 0 0 384zm8-312V320v8H216v-8V184v-8h16v8z"/></svg>
